X: 1347
T:Charlie O'Neill's
R:Highland
S:Andy Dickson, Belfast (fiddle)
D:Private tape
N:As played
Z:Bernie Stocks
M:4/4
K:G
BEBE cBAc | BEBE cAFA | BEBE cBAG | FAdc BGG2 :| g2g2 B2~B2 | Azag fdef |
g2~g2 B2~B2 | ABdc BGG2 | g2~g2 B2~B2 | Azag fdcA | GB{e}dB cdeg | {a}fdef g4 ||
